resources/svg/table-row-after.svg

<svg xmlns="http://www.w3.org/2000/svg" viewBox="0 0 14 14" fill="currentColor"><path d="M2,6 L2,12 L3,12 C3.55228475,12 4,12.4477153 4,13 C4,13.5522847 3.55228475,14 3,14 L2,14 C0.8954305,14 0,13.1045695 0,12 L0,2 C0,0.8954305 0.8954305,0 2,0 L12,0 C13.1045695,0 14,0.8954305 14,2 L14,12 C14,13.1045695 13.1045695,14 12,14 L11,14 C10.4477153,14 10,13.5522847 10,13 C10,12.4477153 10.4477153,12 11,12 L12,12 L12,6 L2,6 Z M2,4 L4,4 L4,2 L2,2 L2,4 Z M6,2 L6,4 L8,4 L8,2 L6,2 Z M10,2 L10,4 L12,4 L12,2 L10,2 Z M8,11 L8,12 C8,12.5522847 7.55228475,13 7,13 C6.44771525,13 6,12.5522847 6,12 L6,11 L5,11 C4.44771525,11 4,10.5522847 4,10 C4,9.44771525 4.44771525,9 5,9 L6,9 L6,8 C6,7.44771525 6.44771525,7 7,7 C7.55228475,7 8,7.44771525 8,8 L8,9 L9,9 C9.55228475,9 10,9.44771525 10,10 C10,10.5522847 9.55228475,11 9,11 L8,11 Z"/></svg>

<svg xmlns="http://www.w3.org/2000/svg" fill="currentColor" viewBox="0 0 14 14"><path d="M2 6v6h1a1 1 0 0 1 0 2H2a2 2 0 0 1-2-2V2a2 2 0 0 1 2-2h10a2 2 0 0 1 2 2v10a2 2 0 0 1-2 2h-1a1 1 0 0 1 0-2h1V6H2Zm0-2h2V2H2v2Zm4-2v2h2V2H6Zm4 0v2h2V2h-2Zm-2 9v1a1 1 0 0 1-2 0v-1H5a1 1 0 0 1 0-2h1V8a1 1 0 1 1 2 0v1h1a1 1 0 1 1 0 2H8Z"/></svg>
